svg/building/home_7_fill.svg

<svg xmlns="http://www.w3.org/2000/svg" width="24" height="24" viewBox="0 0 24 24"><g fill="none" fill-rule="evenodd"><path d="M24,0 L24,24 L0,24 L0,0 L24,0 Z M12.5935,23.2578 L12.5819,23.2595 L12.5109,23.295 L12.4919,23.2987 L12.4767,23.295 L12.4057,23.2595 C12.3958,23.2564 12.387,23.259 12.3821,23.2649 L12.378,23.2758 L12.3609,23.7031 L12.3659,23.7235 L12.3769,23.7357 L12.4805,23.8097 L12.4953,23.8136 L12.5071,23.8097 L12.6107,23.7357 L12.6233,23.7197 L12.6267,23.7031 L12.6096,23.2758 C12.6076,23.2657 12.601,23.2593 12.5935,23.2578 Z M12.8584,23.1453 L12.8445,23.1473 L12.6598,23.2397 L12.6499,23.2499 L12.6472,23.2611 L12.6651,23.6906 L12.6699,23.7034 L12.6784,23.7105 L12.8793,23.8032 C12.8914,23.8069 12.9022,23.803 12.9078,23.7952 L12.9118,23.7812 L12.8777,23.1665 C12.8753,23.1546 12.8674,23.147 12.8584,23.1453 Z M12.143,23.1473 C12.1332,23.1424 12.1222,23.1453 12.1156,23.1526 L12.1099,23.1665 L12.0758,23.7812 C12.0751,23.7927 12.0828,23.8019 12.0926,23.8046 L12.1083,23.8032 L12.3092,23.7105 L12.3186,23.7024 L12.3225,23.6906 L12.3404,23.2611 L12.3372,23.2485 L12.3278,23.2397 L12.143,23.1473 Z"/><path fill="#09244B" d="M10.6713,2.84313 C11.4291,2.16956 12.571,2.16956 13.3287,2.84313 L17.2629,6.34013 L17.5136,4.8356 C17.6044,4.29083 18.1196,3.92281 18.6644,4.0136 C19.2092,4.1044 19.5772,4.61963 19.4864,5.1644 L19.0288,7.90988 L21.6644,10.2526 C22.0772,10.6195 22.1143,11.2516 21.7474,11.6644 C21.3805,12.0771 20.7484,12.1143 20.3356,11.7474 L19.8715,11.3348 L19.0851,19.199 C18.9829,20.2214 18.1225,21 17.095,21 L6.905,21 C5.87749,21 5.01716,20.2214 4.91492,19.199 L4.12851,11.3348 L3.66437,11.7474 C3.25159,12.1143 2.61952,12.0771 2.2526,11.6644 C1.88568,11.2516 1.92286,10.6195 2.33565,10.2526 L10.6713,2.84313 Z"/></g></svg>

<svg xmlns="http://www.w3.org/2000/svg" width="24" height="24"><g fill="none" fill-rule="evenodd"><path d="M24 0v24H0V0zM12.594 23.258l-.012.002-.071.035-.02.004-.014-.004-.071-.036c-.01-.003-.019 0-.024.006l-.004.01-.017.428.005.02.01.013.104.074.015.004.012-.004.104-.074.012-.016.004-.017-.017-.427c-.002-.01-.009-.017-.016-.018m.264-.113-.014.002-.184.093-.01.01-.003.011.018.43.005.012.008.008.201.092c.012.004.023 0 .029-.008l.004-.014-.034-.614c-.003-.012-.01-.02-.02-.022m-.715.002a.023.023 0 0 0-.027.006l-.006.014-.034.614c0 .012.007.02.017.024l.015-.002.201-.093.01-.008.003-.011.018-.43-.003-.012-.01-.01z"/><path fill="#09244B" d="M10.671 2.843a2 2 0 0 1 2.658 0l3.934 3.497.25-1.504a1 1 0 1 1 1.973.328L19.03 7.91l2.635 2.343a1 1 0 0 1-1.328 1.494l-.464-.412-.787 7.864A2 2 0 0 1 17.095 21H6.905a2 2 0 0 1-1.99-1.801l-.786-7.864-.465.412a1 1 0 0 1-1.328-1.494z"/></g></svg>
